!!!OTL@@DE: Liebes-A-B-C
!!!COM: Pohlenz, August
!!!CDT: 1790/07/03/-1843/03/09/
!!!ODT: 1827
!!!OMD: Allegretto
!!!LYR: Gerhard, Wilhelm
!!!LDT: 1826
!!!OCL: Erk, Ludwig
!!!GCO: Deutscher Liederschatz, Band 1
**kern	**kern	**dynam	**kern	**dynam	**text	**text	**text	**text	**text	**text	**text
*staff3	*staff2	*staff2/3	*staff1	*staff1	*staff1	*staff1	*staff1	*staff1	*staff1	*staff1	*staff1
*Ipiano	*Ipiano	*Ipiano	*Ivox	*Ivox	*	*	*	*	*	*	*
*clefF4	*clefG2	*	*clefG2	*	*	*	*	*	*	*	*
*k[b-]	*k[b-]	*	*k[b-]	*	*	*	*	*	*	*	*
*F:	*F:	*	*F:	*	*	*	*	*	*	*	*
*M3/8	*M3/8	*	*M3/8	*	*	*	*	*	*	*	*
*MM100	*MM100	*	*MM100	*	*	*	*	*	*	*	*
=1-	=1-	=1-	=1-	=1-	=1-	=1-	=1-	=1-	=1-	=1-	=1-
*^	*^	*	*	*	*	*	*	*	*	*	*
!	!	!	!	!LO:DY:X=-20:Y=45	!	!	!	!	!	!	!	!	!
8A/L	4F\	8f/L	4c\	p	8f/	.	A	E	I	M	Q	U	Yp-
8G/	.	8e/	.	.	8e/	.	B	F	K	N	R	V	-si-
8A/J	8F\	8f/J	8c\	.	8f/	.	C	G	und	O	S	W	-lon
*v	*v	*	*	*	*	*	*	*	*	*	*	*	*
*	*v	*v	*	*	*	*	*	*	*	*	*	*
=2	=2	=2	=2	=2	=2	=2	=2	=2	=2	=2	=2
4C\ 4c\	4e/ 4g/	.	4g/	.	D ,	H ,	L ,	P ,	T ,	X ,	Z ,
8r	8r	.	8r	.	.	.	.	.	.	.	.
=3	=3	=3	=3	=3	=3	=3	=3	=3	=3	=3	=3
4C\ 4c\	8e/ 8g/L	.	8g/	.	wenn	warst	Aeug-	gleich	Schei-	mach'	nun
.	8d/ 8f/	.	8f/	.	ich	du	-lein	ei-	-den	ei-	geh'
8C\ 8c\	8e/ 8g/J	.	8g/	.	dich	doch	so	-ner	thut	-nen	zu
=4	=4	=4	=4	=4	=4	=4	=4	=4	=4	=4	=4
4F\ 4c\	4f/ 4a/	.	4a/	.	seh' ,	da !	hell	Fee	weh *	Knix ,	Bett !
8r	8r	.	8r	.	%	%	%	%	%	%	%
=5	=5	=5	=5	=5	=5	=5	=5	=5	=5	=5	=5
!	!	!	!	!LO:HP:Z=15	!	!	!	!	!	!	!
4DD/ 4D/	8r	.	8a/	<	dich ,	Dr2uck-	gl2anz-	fes-	Hal-	dr2uckt	Bricht
.	8c/ 8d/ 8f#/L	.	8a/	(	mei-	-te	-ten	-selst	-te	dir	doch
8r	8c/ 8d/ 8f#/J	.	8dd\	[	-ne	mein	in	du	mit	ein	die
=6	=6	=6	=6	=6	=6	=6	=6	=6	=6	=6	=6
!	!	!	!	!LO:HP:Z=15	!	!	!	!	!	!	!
4GG/	8r	.	8.cc\	>	s2u-	treu-	Lie-	Herz	Herz	jun-	Nacht
.	8B-/ 8d/ 8g/L	.	.	.	.	.	.	.	.	.	.
.	.	.	16b-\	)	-sse	-er	-bes-	und	und	-ger	schon
8r	8B-/ 8d/ 8g/J	.	8b-\	]	Lust ,	Arm ,	-pracht	Sinn ,	Mund	Fant	ein ,
=7	=7	=7	=7	=7	=7	=7	=7	=7	=7	=7	=7
!	!	!	!	!LO:HP:Z=15	!	!	!	!	!	!	!
4CC/ 4C/	8r	.	8g/	<	klopft	Hol-	mir	Gr2ub-	treu	z2art-	kann
.	8B-/ 8c/ 8e/L	.	8g/	(	die	-de,	aus	-chen	an	-lich	ja
8r	8B-/ 8c/ 8e/J	.	8cc\	[	em-	dich	der	in	dem	die	nicht
=8	=8	=8	=8	=8	=8	=8	=8	=8	=8	=8	=8
!	!	!	!	!LO:HP:Z=15	!	!	!	!	!	!	!
4FF/	8r	.	8.b-\	>	-p2or-	lie-	Wim-	Wang'	Lie-	Schwwan-	bei
.	8A/ 8c/ 8f/L	.	.	.	.	.	.	.	.	.	.
!	!	!	!	!LO:HPZ:X=-30	!	!	!	!	!	!	!
.	.	.	16a/	]	-te	-be-	-pern	und	-bes-	-en-	dir
8r	8A/ 8c/ 8f/J	.	8a/	.	Brust ,	warm !	Nacht ,	Kinn ,	-bund ,	-hand ,	sein ,
=9	=9	=9	=9	=9	=9	=9	=9	=9	=9	=9	=9
8FF/L	8A/ 8f/L	.	8f/	.	wird	Sch2atz-	tra-	Ro-	sa-	a-	wenn
8GG/	8B-/ 8e/	.	8e/	.	mir	-chen ,	-fen	-sen-	-ge	-ber	ich
8AA/J	8c/ 8f/J	.	8f/	.	so	ach	wie	-glut ,	mir	nur	auch
=10	=10	=10	=10	=10	=10	=10	=10	=10	=10	=10	=10
4BB-/	8r	.	8.ee\	.	wohl	w2arst	bli-	Li-	nie	ern-	Fl2u-
.	8B-/ 8d/ 8g/L	.	.	.	.	.	.	.	.	.	.
.	.	.	16dd\	.	und	du	-tzes-	-lien-	A-	-sten	-gel
8r	8B-/ 8d/ 8g/J	.	8dd\	.	weh ,	da !	-schnell ,	schnee ,	de !	Blicks	h2att' !
=11	=11	=11	=11	=11	=11	=11	=11	=11	=11	=11	=11
4C/	8r	.	8cc\	.	wenn	w2arst	Aeug-	rei-	Schei-	mach'	Geh'
.	8B-/ 8c/ 8e/L	.	8g/	.	ich	du	-lein	-zen-	-den	ihm	nur
8r	8B-/ 8c/ 8e/J	.	8a/	.	dich	mir	so	-de	thut	den	zu
=12	=12	=12	=12	=12	=12	=12	=12	=12	=12	=12	=12
4FF/ 4F/	4A/ 4c/ 4f/	.	4f/	.	seh' !	nah' !	hell *	Fee !	weh *	Knix !	Bett !
8r	8r	.	8r	.	%	%	%	%	%	%	%
==	==	==	==	==	==	==	==	==	==	==	==
*-	*-	*-	*-	*-	*-	*-	*-	*-	*-	*-	*-
!!!SMS: Deutscher Liederschatz, Band 1, Ludwig Erk, ed.
!!!ENC: Craig Stuart Sapp
!!!END: 2004/05/16/
!!!EED: 2011/02/05/
!!!EFL: 001/651
!!muse2ps: s^(.){(..)}^z21jv200,114,144
